src/assets/filled/Wind2.svg

<svg width="24" height="24" viewBox="0 0 24 24"  xmlns="http://www.w3.org/2000/svg">
<path d="M21.9999 13.85C21.8699 13.85 21.7399 13.82 21.6199 13.74L19.1199 12.24C17.8199 11.46 16.1999 11.46 14.8899 12.24C13.1099 13.31 10.8999 13.31 9.11988 12.24C7.81988 11.46 6.19988 11.46 4.88988 12.24L2.38988 13.74C2.02988 13.95 1.56988 13.84 1.35988 13.48C1.14988 13.13 1.25988 12.66 1.61988 12.45L4.11988 10.95C5.89988 9.87996 8.10988 9.87996 9.88988 10.95C11.1899 11.73 12.8099 11.73 14.1199 10.95C15.8999 9.87996 18.1099 9.87996 19.8899 10.95L22.3899 12.45C22.7499 12.66 22.8599 13.12 22.6499 13.48C22.4999 13.72 22.2499 13.85 21.9999 13.85Z" />
<path d="M7.00008 6.85003C6.00008 6.85003 5.00008 6.58003 4.11008 6.05003L1.61008 4.55003C1.26008 4.33003 1.14008 3.87003 1.36008 3.52003C1.57008 3.16003 2.03008 3.05003 2.39008 3.26003L4.89008 4.76003C6.19008 5.54003 7.81008 5.54003 9.12008 4.76003C10.9001 3.69003 13.1101 3.69003 14.8901 4.76003C16.1901 5.54003 17.8101 5.54003 19.1201 4.76003L21.6201 3.26003C21.9801 3.05003 22.4401 3.16003 22.6501 3.52003C22.8601 3.87003 22.7501 4.34003 22.3901 4.55003L19.8901 6.05003C18.1101 7.12003 15.9001 7.12003 14.1201 6.05003C12.8201 5.27003 11.2001 5.27003 9.89009 6.05003C9.00009 6.58003 8.00008 6.85003 7.00008 6.85003Z" />
<path d="M21.9999 20.85C21.8699 20.85 21.7399 20.82 21.6199 20.74L19.1199 19.24C17.8199 18.46 16.1999 18.46 14.8899 19.24C13.1099 20.31 10.8999 20.31 9.11988 19.24C7.81988 18.46 6.19988 18.46 4.88988 19.24L2.38988 20.74C2.02988 20.95 1.56988 20.84 1.35988 20.48C1.14988 20.13 1.25988 19.66 1.61988 19.45L4.11988 17.95C5.89988 16.88 8.10988 16.88 9.88988 17.95C11.1899 18.73 12.8099 18.73 14.1199 17.95C15.8999 16.88 18.1099 16.88 19.8899 17.95L22.3899 19.45C22.7499 19.66 22.8599 20.12 22.6499 20.48C22.4999 20.72 22.2499 20.85 21.9999 20.85Z" />
</svg>

<?xml version="1.0" encoding="UTF-8"?>
<svg width="24" height="24" viewBox="0 0 24 24" xmlns="http://www.w3.org/2000/svg">
 <path d="m22 13.85c-0.13 0-0.26-0.03-0.38-0.11l-2.5-1.5c-1.3-0.78-2.92-0.78-4.23 0-1.78 1.07-3.99 1.07-5.77 0-1.3-0.78-2.92-0.78-4.23 0l-2.5 1.5c-0.36 0.21-0.82 0.1-1.03-0.26-0.21-0.35-0.1-0.82 0.26-1.03l2.5-1.5c1.78-1.07 3.99-1.07 5.77 0 1.3 0.78 2.92 0.78 4.23 0 1.78-1.07 3.99-1.07 5.77 0l2.5 1.5c0.36 0.21 0.47 0.67 0.26 1.03-0.15 0.24-0.4 0.37-0.65 0.37z"/>
 <path d="m7.0001 6.85c-1 0-2-0.27-2.89-0.8l-2.5-1.5c-0.35-0.22-0.47-0.68-0.25-1.03 0.21-0.36 0.67-0.47 1.03-0.26l2.5 1.5c1.3 0.78 2.92 0.78 4.23 0 1.78-1.07 3.99-1.07 5.77 0 1.3 0.78 2.92 0.78 4.23 0l2.5-1.5c0.36-0.21 0.82-0.1 1.03 0.26 0.21 0.35 0.1 0.82-0.26 1.03l-2.5 1.5c-1.78 1.07-3.99 1.07-5.77 0-1.3-0.78-2.92-0.78-4.23 0-0.89 0.53-1.89 0.8-2.89 0.8z"/>
 <path d="m22 20.85c-0.13 0-0.26-0.03-0.38-0.11l-2.5-1.5c-1.3-0.78-2.92-0.78-4.23 0-1.78 1.07-3.99 1.07-5.77 0-1.3-0.78-2.92-0.78-4.23 0l-2.5 1.5c-0.36 0.21-0.82 0.1-1.03-0.26-0.21-0.35-0.1-0.82 0.26-1.03l2.5-1.5c1.78-1.07 3.99-1.07 5.77 0 1.3 0.78 2.92 0.78 4.23 0 1.78-1.07 3.99-1.07 5.77 0l2.5 1.5c0.36 0.21 0.47 0.67 0.26 1.03-0.15 0.24-0.4 0.37-0.65 0.37z"/>
</svg>
